X:1094
T:Gaffer Gray.
M:6/8
L:1/8
Q:3/8=104
Z:Jack Campin * www.campin.me.uk * 2009
K:D Minor
A|d>ef A>d^c  |d2A/>G/ F2e    |f>ed ^c>de    |f3-     f2-f/>g/|
  a>gf e2e/>e/|f>ed   ^c2c/>c/|dAG   F2d/>^c/|d2A/>F/ D2 f/>g/|
  a>gf e2e/>e/|f>ed   ^c2c/>c/|dAG   F2d/>^c/|d2A/>F/ D2     |]
<end>
<start>
